X:59
T:Oak Stick,The. JJo.059
T:Mrs.Casey,aka. JJo.059
S:J.Jones MS,1801,N.Shrops.
N:The A part is very similar to “Mrs Casey”.
A:N Shropshire
Z:Neil Brookes 2006
M:6/8
L:1/8
Q:3/8=120
K:C
g/f/|e2ccec|A3G2c|B2cd2e|f2g agf|!
e2c cec|A3G2c|B2cdcB|[c4C4]::!
e/f/|g2fefg|a2gf2e|f2e def|g2fe2d|!
e2e efg|a2a abc’|d2dd2e|f2g agf|!
e2c cec|A3G2c|B2cd2e|f2g agf|!
e2c cec|A3G2c|B2cdcB|[c4C4]:|

